assets/svg/currencies/crypto/COMP.svg

<svg width="300" height="300" viewBox="0 0 300 300" fill="none" xmlns="http://www.w3.org/2000/svg">
<circle cx="150" cy="150" r="150" fill="black"/>
<path fill-rule="evenodd" clip-rule="evenodd" d="M80.0266 205.873C75.0461 202.826 72 197.402 72 191.576V159.047C72 157.802 72.3335 156.602 72.9561 155.534C74.8905 152.199 79.1817 151.065 82.5168 153.022L155.935 195.822C160.226 198.335 162.872 202.916 162.872 207.896V241.603C162.872 243.137 162.449 244.671 161.649 245.983C159.225 249.941 154.067 251.186 150.109 248.762L80.0266 205.873ZM189.464 144.105C193.755 146.618 196.401 151.199 196.401 156.179V224.571C196.401 226.595 195.311 228.462 193.555 229.441L177.479 238.49C177.279 238.602 177.057 238.69 176.835 238.757V200.781C176.835 195.867 174.256 191.309 170.031 188.774L105.552 150.198V107.33C105.552 106.085 105.885 104.884 106.508 103.817C108.442 100.482 112.733 99.3479 116.068 101.304L189.464 144.105ZM221.593 93.5892C225.906 96.0794 228.552 100.704 228.552 105.685V205.584C228.552 207.629 227.418 209.519 225.617 210.497L210.386 218.724V149.175C210.386 144.262 207.807 139.725 203.605 137.19L137.702 97.6581V56.9915C137.702 55.7464 138.036 54.5457 138.636 53.4785C140.571 50.1433 144.862 49.0094 148.197 50.9438L221.593 93.5892Z" fill="#00D395"/>
</svg>

<svg viewBox="0 0 300 300" fill="none" xmlns="http://www.w3.org/2000/svg">
    <circle cx="150" cy="150" r="150" fill="#000"/>
    <path fill-rule="evenodd" clip-rule="evenodd" d="M80.027 205.873A16.781 16.781 0 0172 191.576v-32.529c0-1.245.334-2.445.956-3.513a6.977 6.977 0 019.56-2.512l73.419 42.8a13.987 13.987 0 016.937 12.074v33.707a8.459 8.459 0 01-1.223 4.38 8.386 8.386 0 01-11.54 2.779l-70.082-42.889zm109.437-61.768a13.987 13.987 0 016.937 12.074v68.392a5.573 5.573 0 01-2.846 4.87l-16.076 9.049c-.2.112-.422.2-.644.267v-37.976c0-4.914-2.579-9.472-6.804-12.007l-64.479-38.576V107.33c0-1.245.333-2.446.956-3.513a6.977 6.977 0 019.56-2.513l73.396 42.801zm32.129-50.516c4.313 2.49 6.959 7.115 6.959 12.096v99.899a5.608 5.608 0 01-2.935 4.913l-15.231 8.227v-69.549c0-4.913-2.579-9.45-6.781-11.985l-65.903-39.532V56.992c0-1.246.334-2.446.934-3.514 1.935-3.335 6.226-4.469 9.561-2.534l73.396 42.645z" fill="#00D395"/>
</svg>
